packages/ffe-icons/icons/open/400/sm/newsstand.svg

<svg xmlns="http://www.w3.org/2000/svg" height="20" viewBox="0 -960 960 960" width="20"><path d="M132-192q-15.3 0-25.65-10.289Q96-212.579 96-227.789 96-243 106.35-253.5 116.7-264 132-264h696q15.3 0 25.65 10.289 10.35 10.29 10.35 25.5Q864-213 853.65-202.5 843.3-192 828-192H132Zm120.211-144Q237-336 226.5-346.338 216-356.677 216-371.96v-215.757Q216-603 226.289-613.5q10.29-10.5 25.5-10.5Q267-624 277.5-613.662 288-603.323 288-588.04v215.757Q288-357 277.711-346.5q-10.29 10.5-25.5 10.5Zm144 0Q381-336 370.5-346.342 360-356.685 360-371.974v-359.737Q360-747 370.289-757.5q10.29-10.5 25.5-10.5Q411-768 421.5-757.658q10.5 10.343 10.5 25.632v359.737Q432-357 421.711-346.5q-10.29 10.5-25.5 10.5Zm144 0Q525-336 514.5-346.342 504-356.685 504-371.974v-359.737Q504-747 514.289-757.5q10.29-10.5 25.5-10.5Q555-768 565.5-757.658q10.5 10.343 10.5 25.632v359.737Q576-357 565.711-346.5q-10.29 10.5-25.5 10.5ZM762-350q-14 5-28-.5T715-370l-78-194q-5-14 .5-27.5T657-610q14-5 28 .5t19 19.5l78 194q5 14-.5 27.5T762-350Z"/></svg>

<svg xmlns="http://www.w3.org/2000/svg" height="20" viewBox="0 -960 960 960" width="20"><path d="M132-192q-15.3 0-25.65-10.29Q96-212.58 96-227.79t10.35-25.71Q116.7-264 132-264h696q15.3 0 25.65 10.29Q864-243.42 864-228.21t-10.35 25.71Q843.3-192 828-192H132Zm120.21-144q-15.21 0-25.71-10.34T216-371.96v-215.76q0-15.28 10.29-25.78 10.29-10.5 25.5-10.5t25.71 10.34q10.5 10.34 10.5 25.62v215.76q0 15.28-10.29 25.78-10.29 10.5-25.5 10.5Zm144 0q-15.21 0-25.71-10.34T360-371.97v-359.74q0-15.29 10.29-25.79t25.5-10.5q15.21 0 25.71 10.34t10.5 25.63v359.74q0 15.29-10.29 25.79t-25.5 10.5Zm144 0q-15.21 0-25.71-10.34T504-371.97v-359.74q0-15.29 10.29-25.79t25.5-10.5q15.21 0 25.71 10.34t10.5 25.63v359.74q0 15.29-10.29 25.79t-25.5 10.5ZM762-350q-14 5-28-.5T715-370l-78-194q-5-14 .5-27.5T657-610q14-5 28 .5t19 19.5l78 194q5 14-.5 27.5T762-350Z"/></svg>
